src/icons/outline/symbols/copy.svg

<svg width="24" height="24" viewBox="0 0 24 24" fill="none" xmlns="http://www.w3.org/2000/svg">
<g clip-path="url(#clip0_4602_386)">
<path fill-rule="evenodd" clip-rule="evenodd" d="M3.6528 2.4051C3.52239 2.4051 3.41669 2.50995 3.41669 2.63929V4.1761C3.41669 4.5641 3.09955 4.87865 2.70834 4.87865C2.31714 4.87865 2 4.5641 2 4.1761V2.63929C2 1.73393 2.73998 1 3.6528 1H4.76807C5.15928 1 5.47642 1.31454 5.47642 1.70255C5.47642 2.09056 5.15928 2.4051 4.76807 2.4051H3.6528ZM7.03395 1.70255C7.03395 1.31454 7.35108 1 7.74229 1H9.71317C10.1044 1 10.4215 1.31454 10.4215 1.70255C10.4215 2.09056 10.1044 2.4051 9.71317 2.4051H7.74229C7.35108 2.4051 7.03395 2.09056 7.03395 1.70255ZM12.1224 1.70255C12.1224 1.31454 12.4395 1 12.8307 1H13.8996C14.4802 1 15.0183 1.30219 15.317 1.79613L16.1695 3.20587C16.3707 3.53862 16.2618 3.97015 15.9263 4.16972C15.5908 4.36929 15.1558 4.26132 14.9545 3.92857L14.1021 2.51884C14.0594 2.44831 13.9825 2.4051 13.8996 2.4051H12.8307C12.4395 2.4051 12.1224 2.09056 12.1224 1.70255ZM2.70834 7.80955C3.09955 7.80955 3.41669 8.1241 3.41669 8.5121V11.6041C3.41669 11.9921 3.09955 12.3067 2.70834 12.3067C2.31714 12.3067 2 11.9921 2 11.6041V8.5121C2 8.1241 2.31714 7.80955 2.70834 7.80955ZM2.70834 15.0954C3.09955 15.0954 3.41669 15.41 3.41669 15.798V17.3774C3.41669 17.5068 3.52239 17.6116 3.6528 17.6116H4.98308C5.37429 17.6116 5.69142 17.9262 5.69142 18.3142C5.69142 18.7022 5.37429 19.0167 4.98308 19.0167H3.6528C2.73998 19.0167 2 18.2828 2 17.3774V15.798C2 15.41 2.31714 15.0954 2.70834 15.0954Z" fill="#3C3B44"/>
<path fill-rule="evenodd" clip-rule="evenodd" d="M7.57192 6.24069C7.93629 5.8793 8.43048 5.67627 8.94578 5.67627H17.694C18.209 5.67639 18.7029 5.87925 19.0672 6.2402L21.4312 8.5849C21.7952 8.94616 21.9999 9.4361 22 9.94678V20.4238C22 21.8464 20.8371 22.9998 19.4027 22.9998H8.94578C8.43055 22.9998 7.93636 22.7968 7.57196 22.4354M7.57196 22.4354C7.20761 22.074 7.00285 21.5838 7.00285 21.0727V7.60331C7.00285 7.09222 7.20756 6.60207 7.57192 6.24069M8.94578 7.08137C8.80622 7.08137 8.67236 7.13636 8.57367 7.23425C8.47498 7.33213 8.41953 7.46489 8.41953 7.60331V21.0727C8.41953 21.2112 8.47499 21.3439 8.57363 21.4417C8.67229 21.5396 8.8062 21.5947 8.94578 21.5947H19.4027C20.0547 21.5947 20.5833 21.0704 20.5833 20.4238V9.94719C20.5832 9.80898 20.5279 9.67624 20.4294 9.57845L17.6939 7.08137M17.6939 7.08137H8.94578H17.6939Z" fill="#3C3B44"/>
</g>
<defs>
<clipPath id="clip0_4602_386">
<rect width="24" height="24" fill="white"/>
</clipPath>
</defs>
</svg>

<svg xmlns="http://www.w3.org/2000/svg" width="24" height="24" fill="none" viewBox="0 0 24 24"><g fill="currentColor" fill-rule="evenodd" clip-path="url(#a)" clip-rule="evenodd"><path d="M3.653 2.405a.235.235 0 0 0-.236.234v1.537a.705.705 0 0 1-.709.703A.705.705 0 0 1 2 4.176V2.64C2 1.734 2.74 1 3.653 1h1.115c.391 0 .708.315.708.703a.705.705 0 0 1-.708.702zm3.381-.702c0-.388.317-.703.708-.703h1.971c.391 0 .709.315.709.703a.705.705 0 0 1-.709.702h-1.97a.705.705 0 0 1-.71-.702m5.088 0c0-.388.318-.703.709-.703h1.07c.58 0 1.118.302 1.417.796l.852 1.41a.7.7 0 0 1-.243.964.71.71 0 0 1-.972-.241l-.852-1.41a.24.24 0 0 0-.202-.114h-1.07a.705.705 0 0 1-.708-.702M2.708 7.81c.392 0 .709.314.709.702v3.092a.706.706 0 0 1-.709.703.706.706 0 0 1-.708-.703V8.512c0-.388.317-.702.708-.702m0 7.285c.392 0 .709.315.709.703v1.58c0 .129.105.234.236.234h1.33c.391 0 .708.314.708.702a.705.705 0 0 1-.708.703h-1.33A1.646 1.646 0 0 1 2 17.377v-1.579c0-.388.317-.703.708-.703M7.572 6.24a1.95 1.95 0 0 1 1.374-.564h8.748a1.95 1.95 0 0 1 1.373.564l2.364 2.345c.364.361.569.851.569 1.362v10.477A2.587 2.587 0 0 1 19.403 23H8.946a1.95 1.95 0 0 1-1.374-.565m0 0a1.92 1.92 0 0 1-.57-1.362V7.603c0-.51.206-1 .57-1.362m1.374.84a.53.53 0 0 0-.372.153.52.52 0 0 0-.154.37v13.469a.53.53 0 0 0 .526.522h10.457c.652 0 1.18-.525 1.18-1.171V9.947a.52.52 0 0 0-.154-.369l-2.735-2.497m0 0H8.946z"/></g><defs><clipPath id="a"><path fill="currentColor" d="M0 0h24v24H0z"/></clipPath></defs></svg>
